src/helpers/heroicons/outline/photo.svg

<svg width="24" height="24" viewBox="0 0 24 24" fill="none" xmlns="http://www.w3.org/2000/svg">
<path d="M2.25 15.75L7.40901 10.591C8.28769 9.71231 9.71231 9.71231 10.591 10.591L15.75 15.75M14.25 14.25L15.659 12.841C16.5377 11.9623 17.9623 11.9623 18.841 12.841L21.75 15.75M3.75 19.5H20.25C21.0784 19.5 21.75 18.8284 21.75 18V6C21.75 5.17157 21.0784 4.5 20.25 4.5H3.75C2.92157 4.5 2.25 5.17157 2.25 6V18C2.25 18.8284 2.92157 19.5 3.75 19.5ZM14.25 8.25H14.2575V8.2575H14.25V8.25ZM14.625 8.25C14.625 8.45711 14.4571 8.625 14.25 8.625C14.0429 8.625 13.875 8.45711 13.875 8.25C13.875 8.04289 14.0429 7.875 14.25 7.875C14.4571 7.875 14.625 8.04289 14.625 8.25Z"  stroke-width="1.5" stroke-linecap="round" stroke-linejoin="round"/>
</svg>

<svg xmlns="http://www.w3.org/2000/svg" fill="none" viewBox="0 0 24 24" stroke-width="1.5" stroke="currentColor" aria-hidden="true" data-slot="icon">
  <path stroke-linecap="round" stroke-linejoin="round" d="m2.25 15.75 5.159-5.159a2.25 2.25 0 0 1 3.182 0l5.159 5.159m-1.5-1.5 1.409-1.409a2.25 2.25 0 0 1 3.182 0l2.909 2.909m-18 3.75h16.5a1.5 1.5 0 0 0 1.5-1.5V6a1.5 1.5 0 0 0-1.5-1.5H3.75A1.5 1.5 0 0 0 2.25 6v12a1.5 1.5 0 0 0 1.5 1.5Zm10.5-11.25h.008v.008h-.008V8.25Zm.375 0a.375.375 0 1 1-.75 0 .375.375 0 0 1 .75 0Z"/>
</svg>
